X:1
T:Title
%%score 1 { 2 | 3 }
L:1/8
Q:1/4=110
M:4/4
K:D
V:1 treble nm="Grand Piano, Staff 1"
V:2 bass nm="Choir Pad, Allm�chtiger Gott, LM"
V:3 bass 
V:1
 [A,D]2 [B,D]2 [CE]2 [DF]2 | [DA]2 [DG]2 [DF]2 [CE]2- | [CE]4 [FA]2 [Fd]2 | %3
w: By~Johann~Cr�ger~(1598\-1662) * * *|||
 [Fc]2 [FB]2 [EA]2 [FA]2 | [E^G]2 [EA]6 | [EA]2 [DF]2 [DA]2 [DB]2 | [DA]2 [DG]2 [EG]2 [CF]2- | %7
w: ||||
 [CF]4 E2 [DF]2 | [D^G]2 [EA]2 D2 [DF]2- | [DF]2 [CE]4 [A,D]2- | [A,D]8 |] %11
w: ||||
V:2
 F,2 F,2 A,2 A,2 | A,2 B,2 A,2 A,2- | A,4[K:treble] C2 B,2 | C2 D2 C2[K:bass] B,2 | B,2 C6 | %5
 A,2 A,2 A,2 G,2 | F,2 B,2 B,2 ^A,2- | A,4 =A,2 A,2 | B,2 C2 F,2 A,2- | A,2 A,2 G,2 F,2- | F,8 |] %11
V:3
 D,2 B,,2 A,,2 D,2 | F,,2 G,,2 D,2 A,,2- | A,,4 F,,2 B,,2 | ^A,,2 B,,2 C,2 D,2 | E,2 A,,6 | %5
 C,2 D,2 F,2 z2 | D,2 B,,2 E,2 F,2- | F,4 C,2 D,2 | B,,2 A,,2 B,,2 F,,2 | G,,2 A,,4 D,2- | D,8 |] %11

